packages/match-logos/mono/svg/university-warwick.svg

<svg fill="none" height="60" viewBox="0 0 91 60" width="91" xmlns="http://www.w3.org/2000/svg" xmlns:xlink="http://www.w3.org/1999/xlink"><clipPath id="a"><path d="m0 0h90.75v60h-90.75z"/></clipPath><g clip-path="url(#a)"><path d="m54.375 49.875-3.15-10.95h-1.8l-3.225 10.95-3.45-12.075h-1.35l3.975 13.65h1.65l3.3-11.025 3.225 11.025h1.575l4.05-13.65h-1.35zm-27.525-2.025 1.575 3.6h1.35l-6.075-13.65h-1.2l-6.075 13.65h1.35l1.575-3.6zm-3.75-8.7 3.225 7.5h-6.525zm13.5 5.925c1.5-.225 3.45-1.05 3.45-3.6 0-3.6-3.6-3.75-4.725-3.75h-3.9v13.65h1.275v-12.45h2.775c2.775 0 3.225 1.575 3.225 2.55s-.525 2.55-3.225 2.55h-1.5v1.125h1.35l3.75 6.225h1.5zm53.85 6.375-7.2-6.825 6.825-6.825h-1.8l-6.975 6.825 7.275 6.825zm-29.1-13.65h1.275v13.65h-1.275zm10.875.75c1.425 0 3.15.675 4.125 2.1l1.05-.825c-1.35-1.8-3.15-2.475-5.175-2.475-4.275 0-7.2 3.075-7.2 7.2 0 4.2 3 7.2 7.2 7.2 2.025 0 3.9-.75 5.175-2.475l-1.05-.825c-.975 1.5-2.7 2.1-4.125 2.1-3.675 0-5.925-2.625-5.925-6 0-3.3 2.25-6 5.925-6zm-55.8-.75-3.45 12.075-3.225-10.95h-1.65l-3.3 10.95-3.45-12.075h-1.35l3.975 13.65h1.65l3.3-11.025 3.225 11.025h1.65l3.975-13.65zm62.85 0h1.275v13.65h-1.275zm-50.475 20.025h2.1v-.45h-2.1v-1.5h2.25v-.375h-2.7v4.35h2.775v-.375h-2.325zm-7.575 1.425h-.075l-2.55-3.75h-.525v4.35h.45v-3.75l2.55 3.75h.6v-4.35h-.45zm4.575.075-1.425-3.825h-.525l1.725 4.35h.45l1.65-4.35h-.45zm-3.15-3.825h.45v4.35h-.45zm-6.075 2.7c0 .15 0 .375-.075.525s-.075.3-.225.45c-.075.15-.225.225-.375.3s-.375.15-.6.15-.375-.075-.6-.15c-.15-.075-.3-.15-.375-.3l-.225-.45c.15-.15.15-.375.15-.525v-2.7h-.45v2.775c0 .15 0 .375.075.6s.15.375.225.6c.15.15.3.3.525.45s.45.15.825.15c.3 0 .6-.075.825-.15.225-.15.375-.225.525-.45.15-.15.225-.375.225-.6.075-.225.075-.375.075-.6v-2.775h-.45v2.7zm-16.275-2.25h1.5v3.975h.45v-3.975h1.425v-.375h-3.375zm9.075 1.875h2.1v-.375h-2.1v-1.5h2.25v-.375h-2.7v4.35h2.775v-.375h-2.325zm-2.025-.375h-2.4v-1.875h-.45v4.35h.45v-2.1h2.4v2.1h.45v-4.35h-.45zm60.15-1.95-1.875 4.35h.525l.45-1.125h2.25l.45 1.125h.525l-1.875-4.35zm-.75 2.85.975-2.325.975 2.325zm-1.35-2.85-1.125 3.75-1.125-3.75h-.525l-1.05 3.75-1.125-3.75h-.45l1.275 4.35h.525l1.125-3.75 1.125 3.75h.525l1.275-4.35zm12.9 3.75h-.075l-1.05-3.75h-.525l-1.125 3.75-1.05-3.75h-.525l1.35 4.35h.45l1.125-3.75 1.125 3.75h.525l1.275-4.35h-.45zm-5.7-1.575c.15-.075.225-.15.375-.225.075-.075.15-.225.225-.375s.075-.3.075-.45c0-.225 0-.375-.075-.525s-.15-.3-.3-.375l-.45-.225h-1.95v4.35h.45v-2.025h.75l1.2 2.025h.6l-1.275-2.1c.15 0 .3 0 .375-.075zm-1.65-.225v-1.575h.825c.15 0 .3 0 .45.075.15 0 .225.075.375.15l.225.225c.075.075.075.225.075.375 0 .225-.075.45-.3.6s-.45.225-.825.225h-.825zm9.675-1.95h.45v4.35h-.45zm9.45 0h-.6l-2.1 1.95v-1.95h-.45v4.35h.45v-2.325l2.175 2.325h.675l-2.325-2.4zm-5.025 3.9c-.225.075-.45.15-.75.15s-.525-.075-.75-.15-.45-.225-.6-.45c-.15-.15-.3-.375-.375-.6s-.15-.45-.15-.75c0-.225.075-.525.15-.75s.225-.45.375-.6.375-.3.6-.45c.225-.075.45-.15.75-.15.15 0 .3 0 .375.075.15 0 .225.075.3.15s.225.15.3.15c.075.075.15.15.15.225l.375-.3c-.075-.075-.15-.225-.3-.3-.075-.075-.225-.15-.375-.225s-.3-.075-.45-.15c-.15 0-.3-.075-.45-.075-.3 0-.6.075-.9.15-.3.15-.525.3-.75.45-.225.225-.375.45-.45.75-.15.3-.15.6-.15.9s.075.675.15.9c.075.3.3.525.45.75.225.225.45.375.75.45.3.15.6.15.9.15.225 0 .375 0 .525-.075s.3-.075.45-.15.225-.15.375-.225l.3-.3-.375-.225c0 .45-.225.6-.45.675zm-50.85-1.725c.15-.075.225-.15.375-.225.075-.075.15-.225.225-.375s.075-.3.075-.45c0-.225 0-.375-.075-.525s-.15-.3-.3-.375l-.45-.225h-1.95v4.35h.45v-2.025h.75l1.2 2.025h.525l-1.275-2.025c.15-.075.3-.075.45-.15zm-1.65-.225v-1.575h.825c.15 0 .3 0 .45.075.15 0 .225.075.375.15l.225.225c.075.075.075.225.075.375 0 .225-.075.45-.3.6s-.45.225-.825.225h-.825zm5.4.375-.45-.225c-.15-.075-.3-.075-.45-.15s-.225-.075-.375-.15-.225-.075-.3-.15l-.225-.225c-.075-.075-.075-.225-.075-.375s0-.225.075-.375c.075-.075.15-.225.225-.225.075-.075.225-.15.3-.15.15 0 .225-.075.3-.075.225 0 .375.075.525.15s.3.15.375.3l.375-.3c-.075-.15-.3-.3-.45-.375-.225-.075-.45-.15-.75-.15-.15 0-.3 0-.525.075l-.45.225c-.15.075-.225.225-.3.375s-.15.3-.15.525 0 .375.075.525.15.225.3.375c.075.075.225.15.375.225s.3.075.45.15.3.075.375.15c.15.075.225.075.375.15l.225.225c.075.075.075.225.075.375s0 .3-.075.375-.15.225-.225.3-.225.15-.3.15c-.15 0-.225.075-.375.075-.225 0-.45-.075-.6-.15s-.3-.225-.375-.375l-.375.3c.075.075.15.225.3.3.075.075.225.15.3.225.15.075.225.075.375.15.15 0 .3.075.375.075.15 0 .375 0 .525-.075l.45-.225c.15-.075.225-.225.3-.375s.15-.375.15-.6-.075-.375-.15-.525c0-.3-.075-.45-.225-.525zm2.4-1.95h1.5v3.975h.45v-3.975h1.425v-.375h-3.375zm15.075 3.975h.45v-2.025h2.025v-.375h-2.025v-1.575h2.175v-.375h-2.625zm-16.125-4.35h.45v4.35h-.45zm6.825 2.1-1.275-2.1h-.6l1.65 2.475v1.875h.45v-1.875l1.65-2.475h-.525zm7.65-1.575c-.225-.225-.45-.375-.75-.45-.3-.15-.6-.15-.9-.15s-.6.075-.9.15c-.3.15-.525.3-.75.45-.225.225-.375.45-.45.75-.15.3-.15.6-.15.9s.075.675.15.9c.15.3.3.525.45.75.225.225.45.375.75.45.3.15.6.15.9.15s.6-.075.9-.15c.3-.15.525-.3.75-.45.225-.225.375-.45.45-.75.15-.3.15-.6.15-.9s-.075-.675-.15-.9c-.075-.3-.225-.525-.45-.75zm.075 2.4c-.075.225-.225.45-.375.6s-.375.3-.6.45c-.225.075-.45.15-.75.15s-.525-.075-.75-.15-.45-.225-.6-.45c-.15-.15-.3-.375-.375-.6s-.15-.45-.15-.75c0-.225.075-.525.15-.75s.225-.45.375-.6.375-.3.6-.45c.225-.075.45-.15.75-.15s.525.075.75.15.45.225.6.45c.15.15.3.375.375.6s.15.45.15.75c-.075.3-.075.525-.15.75zm-8.4-51.6 13.5 25.05 18.225-31.875h-63.45l18.15 31.875z" fill="#1f304c"/></g></svg>

<svg width="91" height="60" viewBox="0 0 91 60" fill="none" xmlns="http://www.w3.org/2000/svg">
<g clip-path="url(#clip0)">
<path d="M54.375 49.875L51.225 38.925H49.425L46.2 49.875L42.75 37.8H41.4L45.375 51.45H47.025L50.325 40.425L53.55 51.45H55.125L59.175 37.8H57.825L54.375 49.875ZM26.85 47.85L28.425 51.45H29.775L23.7 37.8H22.5L16.425 51.45H17.775L19.35 47.85H26.85ZM23.1 39.15L26.325 46.65H19.8L23.1 39.15ZM36.6 45.075C38.1 44.85 40.05 44.025 40.05 41.475C40.05 37.875 36.45 37.725 35.325 37.725H31.425V51.375H32.7V38.925H35.475C38.25 38.925 38.7 40.5 38.7 41.475C38.7 42.45 38.175 44.025 35.475 44.025H33.975V45.15H35.325L39.075 51.375H40.575L36.6 45.075ZM90.45 51.45L83.25 44.625L90.075 37.8H88.275L81.3 44.625L88.575 51.45H90.45ZM61.35 37.8H62.625V51.45H61.35V37.8ZM72.225 38.55C73.65 38.55 75.375 39.225 76.35 40.65L77.4 39.825C76.05 38.025 74.25 37.35 72.225 37.35C67.95 37.35 65.025 40.425 65.025 44.55C65.025 48.75 68.025 51.75 72.225 51.75C74.25 51.75 76.125 51 77.4 49.275L76.35 48.45C75.375 49.95 73.65 50.55 72.225 50.55C68.55 50.55 66.3 47.925 66.3 44.55C66.3 41.25 68.55 38.55 72.225 38.55ZM16.425 37.8L12.975 49.875L9.75 38.925H8.1L4.8 49.875L1.35 37.8H0L3.975 51.45H5.625L8.925 40.425L12.15 51.45H13.8L17.775 37.8H16.425ZM79.275 37.8H80.55V51.45H79.275V37.8ZM28.8 57.825H30.9V57.375H28.8V55.875H31.05V55.5H28.35V59.85H31.125V59.475H28.8V57.825ZM21.225 59.25H21.15L18.6 55.5H18.075V59.85H18.525V56.1L21.075 59.85H21.675V55.5H21.225V59.25ZM25.8 59.325L24.375 55.5H23.85L25.575 59.85H26.025L27.675 55.5H27.225L25.8 59.325ZM22.65 55.5H23.1V59.85H22.65V55.5ZM16.575 58.2C16.575 58.35 16.575 58.575 16.5 58.725C16.425 58.875 16.425 59.025 16.275 59.175C16.2 59.325 16.05 59.4 15.9 59.475C15.75 59.55 15.525 59.625 15.3 59.625C15.075 59.625 14.925 59.55 14.7 59.475C14.55 59.4 14.4 59.325 14.325 59.175L14.1 58.725C14.25 58.575 14.25 58.35 14.25 58.2V55.5H13.8V58.275C13.8 58.425 13.8 58.65 13.875 58.875C13.95 59.1 14.025 59.25 14.1 59.475C14.25 59.625 14.4 59.775 14.625 59.925C14.85 60.075 15.075 60.075 15.45 60.075C15.75 60.075 16.05 60 16.275 59.925C16.5 59.775 16.65 59.7 16.8 59.475C16.95 59.325 17.025 59.1 17.025 58.875C17.1 58.65 17.1 58.5 17.1 58.275V55.5H16.65V58.2H16.575ZM0.3 55.95H1.8V59.925H2.25V55.95H3.675V55.575H0.3V55.95ZM9.375 57.825H11.475V57.45H9.375V55.95H11.625V55.575H8.925V59.925H11.7V59.55H9.375V57.825ZM7.35 57.45H4.95V55.575H4.5V59.925H4.95V57.825H7.35V59.925H7.8V55.575H7.35V57.45ZM67.5 55.5L65.625 59.85H66.15L66.6 58.725H68.85L69.3 59.85H69.825L67.95 55.5H67.5ZM66.75 58.35L67.725 56.025L68.7 58.35H66.75ZM65.4 55.5L64.275 59.25L63.15 55.5H62.625L61.575 59.25L60.45 55.5H60L61.275 59.85H61.8L62.925 56.1L64.05 59.85H64.575L65.85 55.5H65.4ZM78.3 59.25H78.225L77.175 55.5H76.65L75.525 59.25L74.475 55.5H73.95L75.3 59.85H75.75L76.875 56.1L78 59.85H78.525L79.8 55.5H79.35L78.3 59.25ZM72.6 57.675C72.75 57.6 72.825 57.525 72.975 57.45C73.05 57.375 73.125 57.225 73.2 57.075C73.275 56.925 73.275 56.775 73.275 56.625C73.275 56.4 73.275 56.25 73.2 56.1C73.125 55.95 73.05 55.8 72.9 55.725L72.45 55.5H70.5V59.85H70.95V57.825H71.7L72.9 59.85H73.5L72.225 57.75C72.375 57.75 72.525 57.75 72.6 57.675ZM70.95 57.45V55.875H71.775C71.925 55.875 72.075 55.875 72.225 55.95C72.375 55.95 72.45 56.025 72.6 56.1L72.825 56.325C72.9 56.4 72.9 56.55 72.9 56.7C72.9 56.925 72.825 57.15 72.6 57.3C72.375 57.45 72.15 57.525 71.775 57.525H70.95V57.45ZM80.625 55.5H81.075V59.85H80.625V55.5ZM90.075 55.5H89.475L87.375 57.45V55.5H86.925V59.85H87.375V57.525L89.55 59.85H90.225L87.9 57.45L90.075 55.5ZM85.05 59.4C84.825 59.475 84.6 59.55 84.3 59.55C84 59.55 83.775 59.475 83.55 59.4C83.325 59.325 83.1 59.175 82.95 58.95C82.8 58.8 82.65 58.575 82.575 58.35C82.5 58.125 82.425 57.9 82.425 57.6C82.425 57.375 82.5 57.075 82.575 56.85C82.65 56.625 82.8 56.4 82.95 56.25C83.1 56.1 83.325 55.95 83.55 55.8C83.775 55.725 84 55.65 84.3 55.65C84.45 55.65 84.6 55.65 84.675 55.725C84.825 55.725 84.9 55.8 84.975 55.875C85.05 55.95 85.2 56.025 85.275 56.025C85.35 56.1 85.425 56.175 85.425 56.25L85.8 55.95C85.725 55.875 85.65 55.725 85.5 55.65C85.425 55.575 85.275 55.5 85.125 55.425C84.975 55.35 84.825 55.35 84.675 55.275C84.525 55.275 84.375 55.2 84.225 55.2C83.925 55.2 83.625 55.275 83.325 55.35C83.025 55.5 82.8 55.65 82.575 55.8C82.35 56.025 82.2 56.25 82.125 56.55C81.975 56.85 81.975 57.15 81.975 57.45C81.975 57.75 82.05 58.125 82.125 58.35C82.2 58.65 82.425 58.875 82.575 59.1C82.8 59.325 83.025 59.475 83.325 59.55C83.625 59.7 83.925 59.7 84.225 59.7C84.45 59.7 84.6 59.7 84.75 59.625C84.9 59.55 85.05 59.55 85.2 59.475C85.35 59.4 85.425 59.325 85.575 59.25L85.875 58.95L85.5 58.725C85.5 59.175 85.275 59.325 85.05 59.4ZM34.2 57.675C34.35 57.6 34.425 57.525 34.575 57.45C34.65 57.375 34.725 57.225 34.8 57.075C34.875 56.925 34.875 56.775 34.875 56.625C34.875 56.4 34.875 56.25 34.8 56.1C34.725 55.95 34.65 55.8 34.5 55.725L34.05 55.5H32.1V59.85H32.55V57.825H33.3L34.5 59.85H35.025L33.75 57.825C33.9 57.75 34.05 57.75 34.2 57.675ZM32.55 57.45V55.875H33.375C33.525 55.875 33.675 55.875 33.825 55.95C33.975 55.95 34.05 56.025 34.2 56.1L34.425 56.325C34.5 56.4 34.5 56.55 34.5 56.7C34.5 56.925 34.425 57.15 34.2 57.3C33.975 57.45 33.75 57.525 33.375 57.525H32.55V57.45ZM37.95 57.825L37.5 57.6C37.35 57.525 37.2 57.525 37.05 57.45C36.9 57.375 36.825 57.375 36.675 57.3C36.525 57.225 36.45 57.225 36.375 57.15L36.15 56.925C36.075 56.85 36.075 56.7 36.075 56.55C36.075 56.4 36.075 56.325 36.15 56.175C36.225 56.1 36.3 55.95 36.375 55.95C36.45 55.875 36.6 55.8 36.675 55.8C36.825 55.8 36.9 55.725 36.975 55.725C37.2 55.725 37.35 55.8 37.5 55.875C37.65 55.95 37.8 56.025 37.875 56.175L38.25 55.875C38.175 55.725 37.95 55.575 37.8 55.5C37.575 55.425 37.35 55.35 37.05 55.35C36.9 55.35 36.75 55.35 36.525 55.425L36.075 55.65C35.925 55.725 35.85 55.875 35.775 56.025C35.7 56.175 35.625 56.325 35.625 56.55C35.625 56.775 35.625 56.925 35.7 57.075C35.775 57.225 35.85 57.3 36 57.45C36.075 57.525 36.225 57.6 36.375 57.675C36.525 57.75 36.675 57.75 36.825 57.825C36.975 57.9 37.125 57.9 37.2 57.975C37.35 58.05 37.425 58.05 37.575 58.125L37.8 58.35C37.875 58.425 37.875 58.575 37.875 58.725C37.875 58.875 37.875 59.025 37.8 59.1C37.725 59.175 37.65 59.325 37.575 59.4C37.5 59.475 37.35 59.55 37.275 59.55C37.125 59.55 37.05 59.625 36.9 59.625C36.675 59.625 36.45 59.55 36.3 59.475C36.15 59.4 36 59.25 35.925 59.1L35.55 59.4C35.625 59.475 35.7 59.625 35.85 59.7C35.925 59.775 36.075 59.85 36.15 59.925C36.3 60 36.375 60 36.525 60.075C36.675 60.075 36.825 60.15 36.9 60.15C37.05 60.15 37.275 60.15 37.425 60.075L37.875 59.85C38.025 59.775 38.1 59.625 38.175 59.475C38.25 59.325 38.325 59.1 38.325 58.875C38.325 58.65 38.25 58.5 38.175 58.35C38.175 58.05 38.1 57.9 37.95 57.825ZM40.35 55.875H41.85V59.85H42.3V55.875H43.725V55.5H40.35V55.875ZM55.425 59.85H55.875V57.825H57.9V57.45H55.875V55.875H58.05V55.5H55.425V59.85ZM39.3 55.5H39.75V59.85H39.3V55.5ZM46.125 57.6L44.85 55.5H44.25L45.9 57.975V59.85H46.35V57.975L48 55.5H47.475L46.125 57.6ZM53.775 56.025C53.55 55.8 53.325 55.65 53.025 55.575C52.725 55.425 52.425 55.425 52.125 55.425C51.825 55.425 51.525 55.5 51.225 55.575C50.925 55.725 50.7 55.875 50.475 56.025C50.25 56.25 50.1 56.475 50.025 56.775C49.875 57.075 49.875 57.375 49.875 57.675C49.875 57.975 49.95 58.35 50.025 58.575C50.175 58.875 50.325 59.1 50.475 59.325C50.7 59.55 50.925 59.7 51.225 59.775C51.525 59.925 51.825 59.925 52.125 59.925C52.425 59.925 52.725 59.85 53.025 59.775C53.325 59.625 53.55 59.475 53.775 59.325C54 59.1 54.15 58.875 54.225 58.575C54.375 58.275 54.375 57.975 54.375 57.675C54.375 57.375 54.3 57 54.225 56.775C54.15 56.475 54 56.25 53.775 56.025ZM53.85 58.425C53.775 58.65 53.625 58.875 53.475 59.025C53.325 59.175 53.1 59.325 52.875 59.475C52.65 59.55 52.425 59.625 52.125 59.625C51.825 59.625 51.6 59.55 51.375 59.475C51.15 59.4 50.925 59.25 50.775 59.025C50.625 58.875 50.475 58.65 50.4 58.425C50.325 58.2 50.25 57.975 50.25 57.675C50.25 57.45 50.325 57.15 50.4 56.925C50.475 56.7 50.625 56.475 50.775 56.325C50.925 56.175 51.15 56.025 51.375 55.875C51.6 55.8 51.825 55.725 52.125 55.725C52.425 55.725 52.65 55.8 52.875 55.875C53.1 55.95 53.325 56.1 53.475 56.325C53.625 56.475 53.775 56.7 53.85 56.925C53.925 57.15 54 57.375 54 57.675C53.925 57.975 53.925 58.2 53.85 58.425ZM45.45 6.825L58.95 31.875L77.175 0H13.725L31.875 31.875L45.45 6.825Z" fill="#1F304C"/>
</g>
<defs>
<clipPath id="clip0">
<rect width="90.75" height="60" fill="white"/>
</clipPath>
</defs>
</svg>
